remix/Media/music-line.svg

<svg viewBox="0 0 24 24" fill="currentColor" xmlns="http://www.w3.org/2000/svg"><path d="M12 13.5351V3H20V5H14V17C14 19.2091 12.2091 21 10 21C7.79086 21 6 19.2091 6 17C6 14.7909 7.79086 13 10 13C10.7286 13 11.4117 13.1948 12 13.5351ZM10 19C11.1046 19 12 18.1046 12 17C12 15.8954 11.1046 15 10 15C8.89543 15 8 15.8954 8 17C8 18.1046 8.89543 19 10 19Z"/></svg>

<svg viewBox="0 0 24 24" xmlns="http://www.w3.org/2000/svg"><path fill="none" d="M0 0h24v24H0Z"/><path d="M12 13.535V3h8v2h-6v12 0c-.01 2.2-1.8 3.99-4.01 3.99 -2.21-.01-4-1.8-4-4.01s1.79-4 4-4c.7 0 1.39.18 1.99.53ZM10 19v0c1.1 0 2-.9 2-2 0-1.11-.9-2-2-2v0c-1.11 0-2 .89-2 2 0 1.1.89 2 2 2Z"/></svg>
